!!!OTL: ES GIENG EIN KNAB SPAZIEREN
!!!ARE: Europa, Mitteleuropa, Deutschland, Wuerttemberg
!!!SCT: E0131B
!!!YEM: Copyright 1995, estate of Helmut Schaffrath.
**kern
*ICvox
*Ivox
*M4/4
*k[f#]
*G:
{4d
=1
4g
4b
4g
4b
=2
4dd
8cc
8b
4a}
{4dd
=3
8ee
8dd
8cc
8b
4a
4a
=4
2b
4r}
{8a
8a
=5
8a
8a
8a
8a
4cc
8b
8a
=6
4.b
8cc
4dd}
{4dd
=7
4ee
4ee
8gg
8ff#
8ee
8ee
=8
2dd
4r}
{8dd
8cc
=9
4b
4b
4dd
8dd
8cc
=10
2b
4r}
==
!!!AGN: erzaehlendes Volks - Lied, Schalk -, Schelmen - Lied, Vergewaltigung     Ballade ?
!!!ONB: ESAC (Essen Associative Code) Database: ERK1
!!!AMT: simple quadruple
!!!AIN: vox
!!!EED: Helmut Schaffrath
!!!EEV: 1.0
*-
!!!title: @{OTL} [@{SCT}]
